X: 38036
T: Spider's Web, The
R: jig
M: 6/8
K: Gmajor
GBd g2 d|egd BGG|Bcd efg|a2 g fed|
GBd g2 d|egd BGG|Bdd cAF|1 DEF G2 F:|2 DEF G3||
bag gfg|bag gfe|def gab|a2 g fed|
bag bag|gfe dBG|Bdd cAF|DEF G3:|

